X: 1
T: POPPY LEAF -- HORNPIPE
B: Ryan's Mammoth Collection of Fiddle Tunes
R: hornpipe
M: C|
L: 1/8
Z: Contributed 20010926175448 by John Chambers jmchambers:rcn.net
K: G
((3CB,A,) \
| G,>B,D>G B,>DG>B | D>GB>d G>Bd>g | "4"e>dc>B c>BA>G | F>dA>F D>CB,>A, |
| G,>B,D>G B,>DG>B | D>GB>d G>Bd>g | "4"e>dc>B c>DE>F | G2B2G2 :|
|: (uBc) \
| d>BG>B d>Bg>d | b>ag>f "4"e>dc>B | c>AF>A c>Af>d | a>gf>e d>cB>A |
| ((3B^AB) G>B ((3cBc) A>c | ((3d^cd) B>d e2d>=c | B>gd>B d>cA>F | G2g2G2 :|
